X:323
T:Mist Covered Mountains, The
T:Chi Mi Na Morbheanna
B:Scots Guards Standard Settings V.1
N:Transposed from Bm for comparison
Z:Nigel Gatherer
L:1/8
M:6/8
K:Am
A3 A3|e2 e  e>dB|G3 G3|B>AB A>GA|
c3 d3|e>fg B>AG|A>Be d>cB|A3 A3:|
e3 e3|d>eg e>dB|G2 G d2 B|e2 e  d>cB|
A3 c3|e>fg B>AG|A>Be d>cB|A3 A3:|
<end>
<start>
